X:1
T:Frau Musika
T:Friedrich Rochlitz
T:Frau Musika
T:CPDL - Creative Commons Attribution Non Commercial 3.0
T:CPDL - Creative Commons Attribution Non Commercial 3.0
T:CPDL - Creative Commons Attribution Non Commercial 3.0
T:CPDL - Creative Commons Attribution Non Commercial 3.0
T:CPDL - Creative Commons Attribution Non Commercial 3.0
T:CPDL - Creative Commons Attribution Non Commercial 3.0
C:Friedrich Rochlitz
Z:CPDL - Creative Commons Attribution Non Commercial 3.0
%%score [ ( 1 2 ) ( 3 4 ) ] [ ( 5 6 ) ( 7 8 ) ]
L:1/8
Q:1/4=120
M:4/4
K:Bb
V:1 treble-8 nm="   Tenor   "
V:2 treble-8 
V:3 bass nm="Bass"
V:4 bass 
V:5 treble-8 nm="Tenor"
V:6 treble-8 
V:7 bass nm="Bass"
V:8 bass 
V:1
"^Chor 1""^Andante patetico"!f! B4 B2 B2 | B3 B B2 B2 | d8 | B4 z4 | B4 B2 B2 | d3 d d2 d2 | f8 | %7
w: Hal- tet Frau|Mu- si- ka in|Eh-|ren!|Hal- tet Frau|Mu- si- ka in|Eh-|
 d4 z4 | d4 d2 d2 | f3 f f2 f2 | (f8 | e4) !breath!ff ff/>f/ | d8 | !fermata!d6 |!p! d2 | %15
w: ren!|Hal- tet Frau|Mu- si- ka in|Eh-|* ren, in Eh- ren, in|Eh-|ren!|Aus|
 d2 d2 d2 d2 | d4 z4 |!p! d2"^cresc." d>d d4 |!f! e4 z4 |!f! e2 e>e e4 | e4 z4 |"^dolce" e4 e4 | %22
w: Gna- den gab sie|Gott,|wi- der der Welt|Spott,|wi- der der Welt|Spott,|uns- re|
 (e2 =d2) c2 B2 | B8 | e4 z2 f2 | (e8 | d8) | e8- | !fermata!e6 |!ff! d>d | d2 d2 g2 d2 | e4 z4 | %32
w: Freu- * de zu|meh-|ren, zu|meh-||ren,|_|und zu|sei- nes Na- mens|Preis,|
 z ccc f2 c2 | d4 z4 | z =eee f2 f z | z fff _a2 f z | z fff f2 d2 | =B2 _A2 (c2 f2- | %38
w: in im- mer and- rer|Weis',|die fins- tern Geis- ter,|die fins- tern Geis- ter,|die fins- tern Geis- ter|zu be- schwö- *|
 f2 =e2) !fermata!f4 | B4 B2 B2 | B3 B B2 B2 | d4 B2 z2 | d4 d2 d2 | d3 d d2 d2 | f4 d2 z2 | %45
w: * * ren.|Hal- tet Frau|Mu- si- ka in|Eh- ren!|Hal- tet Frau|Mu- si- ka in|Eh- ren,|
 z4 z2 d2 | f8- | f4 !breath!ff ff/>f/ | d8 | d2!>(! d2 (B2 F2)!>)! | !breath!D4!p! B4 | A8 | %52
w: in|Eh-|* ren, in Eh- ren, in|Eh-|ren, in Eh- *|ren, in|Eh-|
 !fermata!B8 |] %53
w: ren!|
V:2
 F4 F2 F2 | F3 F F2 F2 | B8 | F4 x4 | F4 F2 F2 | B3 B B2 B2 | d8 | B4 x4 | B4 B2 B2 | d3 d d2 d2 | %10
 e8- | e4 ec cc/>c/ | B8 | B6 | A2 | B2 B2 B2 G2 | A4 x4 | B2 B>B B4 | B4 x4 | B2 B>B B4 | _G4 x4 | %21
 E4 E4 | =G4 G2 G2 | _A8 | G4 x2 c2 | (e2 B2 G2 B2 | _A2 d2 f2 B2) | B8- | B6 | G>G | %30
 G2 G2 d2 =B2 | G4 x4 | x =AAA c2 A2 | B4 x4 | x ccc c2 c x | x _ddd f2 d x | x _ddd =d2 =B2 | %37
 _A2 F2 (=A4 | G4) A4 | F4 F2 F2 | F3 F F2 F2 | B4 F2 x2 | B4 B2 B2 | B3 B B2 B2 | d4 B2 x2 | %45
 x4 x2 B2 | e8- | e4 ec cc/>c/ | B8 | B2 B2 (F2 D2) | B,4 F4 | F8 | F8 |] %53
V:3
!f! D,4 D,2 D,2 | D,3 D, D,2 D,2 |"^1""^2" F,8 | D,4 z4 | D,4 D,2 D,2 | F,3 F, F,2 F,2 | B,8 | %7
 F,4 z4 | F,4 F,2 B,2 | B,3 B, B,2 B,2 | A,8- | A,4 !breath!A,A, A,A,/>A,/ | (B,2 F,6) | %13
 !fermata!F,6 |!p! ^F,2 | G,2 G,2 G,2 G,2 | D,4 z4 |!p! G,2"^cresc." G,>G, _A,4 |!f! G,4 z4 | %19
!f! _G,2 G,>G, G,4 | _G,4 z4 |"^dolce" (_G,4 B,2) =C2 | B,4 E,2 E,2 | F,8 | E,4 z2 _A,,2 | %25
 (B,,2 B,4 G,2 | F,2 _A,4 F,2) | G,8- | !fermata!G,6 |!ff! G,>G, | G,2 G,2 =B,2 G,2 | C4 z4 | %32
 z F,F,F, =A,2 F,2 | F,4 z4 | z B,B,B, _A,2 A, z | z _A,A,A, _D2 A, z | z _A,A,A, A,2 A,2 | %37
 F,2 =D,2 C,4- | C,4 !fermata!C,4 | D,4 D,2 D,2 | D,3 D, D,2 D,2 | F,4 D,2 z2 | F,4 F,2 F,2 | %43
 F,3 F, F,2 F,2 | B,4 F,2 z2 | z4 z2 F,2 | A,8- | A,4 !breath!A,A, A,A,/>A,/ | (B,2 F,6) | %49
 F,2!>(! F,2 (D,2 B,,2)!>)! | !breath!B,,4!p! D,4 | E,8 | !fermata!D,8 |] %53
V:4
 B,,4 D,2 F,2 | B,3 B,, B,,2 B,,2 | B,8 | B,,4 x4 | B,,4 D,2 F,2 | B,3 B,, B,,2 B,,2 | B,8 | %7
w: |||||||
 B,,4 x4 | B,,4 D,2 F,2 | B,3 B,, B,,2 B,,2 | ([F,,F,]2 A,,C, F,C,A,,C, | F,4) F,F, F,F,/>F,/ | %12
w: |||||
 B,,8 | B,,6 | z2 | z8 | z8 | G,,2 G,,>G,, F,4 | E,4 x4 | E,2 E,>E, (E,2 _D,2) | _C,4 x4 | %21
w: |||||||||
 (_C,4 B,,2) =A,,2 | B,,4 B,,2 B,,2 | (B,,6 [B,,B,]2) | [E,,E,]4 x2 _A,,2 | (B,,2 E,2 G,2 E,2 | %26
w: |||||
 _A,2 F,2 D,2 B,,2) | E,2 B,,2 (G,,2 B,,2) | [E,,E,]6 | =B,,>B,, | =B,,2 B,,2 G,,2 B,,2 | C,4 x4 | %32
w: |ren, zu meh- *|ren.||||
 x F,F,F, F,2 [F,,F,]2 | B,,4 x4 | x G,G,G, F,2 F, x | x _D,D,D, _D2 D, x | x _D,D,C, =B,,2 =D,2 | %37
w: |||||
 F,2 =B,,2 C,4- | C,4 F,,4 | B,,4 D,2 F,2 | B,3 B,, B,,2 B,,2 | B,4 B,,2 x2 | B,,4 D,2 F,2 | %43
w: ||||||
 B,3 B,, B,,2 B,,2 | B,4 B,,2 x2 | x4 x2 B,,2 | (F,,2 A,,C, F,C,A,,C, | F,4) F,F, F,F,/>F,/ | %48
w: |||||
 B,,8 | B,,2 B,,2 B,,4 | B,,4 B,,4 | F,4- [F,,F,]4 | B,,8 |] %53
w: |||||
V:5
"^Chor 2" z8 | z8 |!f! B4 B2 B2 | B3 B B2 B2 | d8 | B4 z4 | B4 B2 B2 | d3 d d2 d2 | f8 | d4 z4 | %10
w: ||Hal- tet Frau|Mu- si- ka in|Eh-|ren!|Hal- tet Frau|Mu- si- ka in|Eh-|ren,|
 z4 z f ff/>f/ | f8 | !breath!f2!ff! B2 (F2 D2) | !fermata!B,6 | z2 | z4 z2!p! d2 | d2 d2 d2 d2 | %17
w: in Eh- ren, in|Eh-|ren, in Eh- *|ren!||Aus|Gna- den gab sie|
 d4 z4 |"^cresc." e2 e>e e4 |!f! _g4 z3/2 g/ g2 | _g4 z4 | z8 | z8 |"^dolce" =d4 d4 | %24
w: Gott,|wi- der der Welt|Spott, der Welt|Spott,|||uns- re|
 (e2 d2) c2 c2 | (B8 | d6 f2) | e8- | !fermata!e6 | z2 | z4 z2!f! G>G | G2 c2 e2 c2 | f4 z4 | %33
w: Freu- * de zu|meh-||ren,|_||und zu|sei- nes Na- mens|Preis,|
 z ddd f2 B2 | =e4 z fff | f2 f z z fff | _a2 f z z4 | f2 d2 (f2 c2- | c2 g2) !fermata!f4 | z8 | %40
w: in im- mer and- rer|Weis', die fins- tern|Geis- ter, die fins- tern|Geis- ter|zu be- schwö- *|* * ren.||
 B4 B2 B2 | B3 B B2 B2 | d4 B2 z2 | d4 d2 d2 | d3 d d2 d2 | f4 d2 z2 | z4 z f ff/>f/ | f8 | %48
w: Hal- tet Frau|Mu- si- ka in|Eh- ren!|Hal- tet Frau|Mu- si- ka in|Eh- ren,|in Eh- ren, in|Eh-|
 f2!ff! B2 (F2 D2) |!>(! B,8-!>)! | !breath!B,4!p! F4 | A8 | !fermata!F8 |] %53
w: ren, in Eh- *|ren,|* in|Eh-|ren!|
V:6
 x8 | x8 | F4 F2 F2 | F3 F F2 F2 | B8 | F4 x4 | F4 F2 F2 | B3 B B2 B2 | d8 | B4 x4 | %10
 x4 x c cc/>c/ | c8 | d2 B2 (F2 D2) | B,6 | x2 | x4 x2 B2 | A2 A2 A2 A2 | B4 x4 | B2 B>B B4 | %19
 e4 x3/2 e/ e2 | e4 x4 | x8 | x8 | B4 B4 | B4 _A2 A2 | B8- | B8 | B8- | B6 | x2 | x4 x2 G>G | %31
 G2 G2 G2 G2 | c4 x4 | x BBB d2 B2 | B4 x ccc | _d2 d x x ddd | f2 _d x x4 | d2 =B2 (c2 =A2 | %38
 _B4) c4 | x8 | F4 F2 F2 | F3 F F2 F2 | B4 F2 x2 | B4 B2 B2 | B3 B B2 B2 | d4 B2 x2 | %46
 x4 x c cc/>c/ | c8 | d2 B2 (F2 D2) | B,8- | B,4 F4 | F8 | D8 |] %53
V:7
 z8 | z8 |!f! D,4 D,2 D,2 | D,3 D, D,2 D,2 |"^1""^2" F,8 | D,4 z4 | D,4 D,2 D,2 | F,3 F, F,2 F,2 | %8
 B,8 | F,4 z4 | z4 z A, A,A,/>A,/ | (C,3 F, A,F,C,F,) | !breath!D,2!ff! B,2 (F,2 D,2) | %13
 !fermata!B,,6 | z2 | z4 z2!p! G,2 | ^F,2 F,2 F,2 F,2 | G,4 z4 |"^cresc." G,2 G,>G, _G,4 | %19
!f! B,4 z3/2 B,/ B,2 | _C4 z4 | z8 | z8 |"^dolce" (F,4 =G,2) _A,2 | G,4 _A,2 A,2 | (G,8 | _A,8) | %27
 G,8- | !fermata!G,6 | z2 | z4 z2!f! G,>G, | G,2 G,2 G,2 E,2 | F,4 z4 | z F,F,F, B,2 F,2 | %34
 G,4 z _A,A,A, | _A,2 A, z z A,A,A, | _D2 _A, z z4 | _A,2 F,2 (=A,2 F,2 | G,=A, B,2) !fermata!A,4 | %39
 z8 | D,4 D,2 D,2 | D,3 D, D,2 D,2 | F,4 D,2 z2 | F,4 F,2 F,2 | F,3 F, F,2 F,2 | B,4 F,2 z2 | %46
 z4 z A, A,A,/>A,/ | (C,3 F, A,F,C,F,) | D,2!ff! B,2 (F,2 D,2) |!>(! B,,8-!>)! | %50
 !breath!B,,4!p! D,4 | E,8 | !fermata!D,8 |] %53
V:8
 x8 | x8 | B,,4 D,2 F,2 | B,3 B,, B,,2 B,,2 | B,8 | B,,4 x4 | B,,4 D,2 F,2 | B,3 B,, B,,2 B,,2 | %8
w: ||||||||
 B,8 | B,,4 x4 | x4 x F, F,F,/>F,/ | (F,,2 A,,C, F,C,A,,F,,) | B,,2 B,2 (F,2 D,2) | B,,6 | x2 | %15
w: |||||||
 z8 | z8 | z8 | E,2 E,>E, E,4 | E,4 x3/2 E,/ B,2 | _C4 x4 | x8 | x8 | (_A,4 G,2) F,2 | %24
w: |||||||||
 E,4 _A,,2 [F,,F,]2 | B,,4 B,,2 B,,2 | B,,8 | E,2 B,,2 (G,,2 B,,2) | E,6 | x2 | x4 x2 G,>G, | %31
w: |meh- ren, zu|meh-|ren. zu meh- *|ren.|||
 G,2 E,2 C,2 B,,2 | A,,4 x4 | x B,,B,,B,, B,,2 _A,,2 | G,,4 x _A,,A,,A,, | _D,2 D, x x D,D,D, | %36
w: |||||
 _D2 _D, x x4 | =B,,2 F,2 C,4- | C,4 F,4 | x8 | B,,4 D,2 F,2 | B,3 B,, B,,2 B,,2 | B,4 B,,2 x2 | %43
w: |||||||
 B,,4 D,2 F,2 | B,3 B,, B,,2 B,,2 | B,4 B,,2 x2 | x4 x F, F,F,/>F,/ | (F,,2 A,,C, F,C,A,,F,,) | %48
w: |||||
 B,,2 B,2 (F,2 D,2) | B,,8- | B,,4 B,,4 | [F,,F,]4- [F,,F,]4 | B,,8 |] %53
w: |||||

